assets/2023/icons/docker.svg

<svg width="16" height="16" viewBox="0 0 16 16" fill="none" xmlns="http://www.w3.org/2000/svg">
<path fill-rule="evenodd" clip-rule="evenodd" d="M14.0875 6.73537C14.8498 6.73537 15.2112 7.00829 15.25 7.03904L15.3908 7.15031L15.3324 7.3212C15.2392 7.55692 15.0957 7.76945 14.9119 7.94392C14.6352 8.21746 14.1336 8.5439 13.3179 8.5439H13.1863C13.1193 8.71333 13.0476 8.9118 12.9697 9.12757C12.6636 9.97489 12.2611 11.0892 11.6673 11.7614C11.2217 12.2658 10.6975 12.6948 10.1151 13.0321C9.4083 13.4323 8.63953 13.7116 7.8406 13.8583C7.26588 13.9652 6.6824 14.0181 6.09783 14.0163C4.80382 14.0163 4.24798 13.8704 3.34534 13.4401C2.4427 13.0098 1.89992 12.3003 1.41239 11.196C1.14196 10.5834 1.04463 9.67345 1.01158 8.98449C0.985785 8.44692 1.42615 8.02076 1.96433 8.02076H10.9653C11.0802 8.01646 11.6482 7.96789 12.0023 7.77057C11.7091 7.30705 11.6261 6.76488 11.7626 6.18763C11.7825 6.10437 11.8063 6.02221 11.8338 5.94141C11.9061 5.72897 12.0044 5.5259 12.1265 5.33684L12.2611 5.14258L12.4658 5.26062L12.4659 5.26064C12.5039 5.28307 13.3394 5.77611 13.4869 6.78699C13.6854 6.75351 13.8862 6.73624 14.0875 6.73537ZM5.74991 11.5C5.74991 11.9142 5.41413 12.25 4.99991 12.25C4.5857 12.25 4.24991 11.9142 4.24991 11.5C4.24991 11.0858 4.5857 10.75 4.99991 10.75C5.41413 10.75 5.74991 11.0858 5.74991 11.5Z" fill="#3574F0"/>
<rect x="4" y="2" width="5" height="5" rx="1" fill="#3574F0"/>
</svg>

<svg xmlns="http://www.w3.org/2000/svg" width="16" height="16" fill="none" viewBox="0 0 16 16"><path fill="#3574F0" fill-rule="evenodd" d="M14.088 6.735c.762 0 1.123.273 1.162.304l.14.111-.058.171a1.7 1.7 0 0 1-.42.623c-.277.273-.778.6-1.594.6h-.132c-.067.17-.138.368-.216.584-.306.847-.709 1.961-1.303 2.633-.445.505-.97.934-1.552 1.271-.707.4-1.475.68-2.274.826a9.4 9.4 0 0 1-1.743.158c-1.294 0-1.85-.146-2.753-.576-.902-.43-1.445-1.14-1.933-2.244-.27-.613-.367-1.523-.4-2.212-.026-.537.414-.963.952-.963h9.001c.115-.005.683-.053 1.037-.25-.293-.464-.376-1.006-.24-1.583a2.7 2.7 0 0 1 .364-.851l.135-.194.205.118c.038.022.873.515 1.02 1.526q.3-.05.601-.052M5.75 11.5a.75.75 0 1 1-1.5 0 .75.75 0 0 1 1.5 0" clip-rule="evenodd"/><rect width="5" height="5" x="4" y="2" fill="#3574F0" rx="1"/></svg>
